Dominus_Dark_Funeral/22/apps/granatier.svg

<svg xmlns="http://www.w3.org/2000/svg" width="24" height="24"><defs><linearGradient id="a"><stop offset="0" stop-color="#000003"/><stop offset="1" stop-opacity="0"/></linearGradient></defs><path d="M3.31 1.33c-.63 0-1.37.13-2.21.45a.43.43 0 0 0-.32.33c-.03.16.04.31.2.41.14.08.33.1.49.03 1.51-.56 2.34-.45 3-.12.62.32 1.13.93 1.71 1.56l-.36.29c-.23.2-.32.52-.15.77l.4.6a10.01 10.01 0 0 0-2.87 7 10.01 10.01 0 0 0 10.01 10.02 10.01 10.01 0 0 0 10.01-10.01 10.01 10.01 0 0 0-10-10.01A10.01 10.01 0 0 0 8.4 3.88l-.33-.48c-.17-.25-.5-.29-.76-.15l-.38.23c-.56-.6-1.11-1.32-2-1.78a3.54 3.54 0 0 0-1.63-.36zm11.26 3.38a2.72 2.27 21.47 0 1 1.24.22 2.72 2.27 21.47 0 1 1.7 3.1 2.72 2.27 21.47 0 1-3.36 1.13 2.72 2.27 21.47 0 1-1.7-3.11 2.72 2.27 21.47 0 1 2.12-1.34z" fill="#e6e6e6" fill-rule="evenodd"/></svg>

<?xml version="1.0" encoding="UTF-8" standalone="no"?>
<svg
   xmlns:dc="http://purl.org/dc/elements/1.1/"
   xmlns:cc="http://creativecommons.org/ns#"
   xmlns:rdf="http://www.w3.org/1999/02/22-rdf-syntax-ns#"
   xmlns:svg="http://www.w3.org/2000/svg"
   xmlns="http://www.w3.org/2000/svg"
   xmlns:sodipodi="http://sodipodi.sourceforge.net/DTD/sodipodi-0.dtd"
   xmlns:inkscape="http://www.inkscape.org/namespaces/inkscape"
   width="24"
   height="24"
   version="1.1"
   id="svg11"
   sodipodi:docname="granatier.svg"
   inkscape:version="0.92.4 (5da689c313, 2019-01-14)">
  <metadata
     id="metadata15">
    <rdf:RDF>
      <cc:Work
         rdf:about="">
        <dc:format>image/svg+xml</dc:format>
        <dc:type
           rdf:resource="http://purl.org/dc/dcmitype/StillImage" />
        <dc:title></dc:title>
      </cc:Work>
    </rdf:RDF>
  </metadata>
  <sodipodi:namedview
     pagecolor="#ffffff"
     bordercolor="#666666"
     borderopacity="1"
     objecttolerance="10"
     gridtolerance="10"
     guidetolerance="10"
     inkscape:pageopacity="0"
     inkscape:pageshadow="2"
     inkscape:window-width="1138"
     inkscape:window-height="480"
     id="namedview13"
     showgrid="false"
     inkscape:zoom="9.8333333"
     inkscape:cx="1.0677966"
     inkscape:cy="12"
     inkscape:window-x="0"
     inkscape:window-y="25"
     inkscape:window-maximized="0"
     inkscape:current-layer="svg11" />
  <defs
     id="defs7">
    <linearGradient
       id="a">
      <stop
         offset="0"
         stop-color="#000003"
         id="stop2" />
      <stop
         offset="1"
         stop-opacity="0"
         id="stop4" />
    </linearGradient>
  </defs>
  <path
     d="M 3.31,1.33 C 2.68,1.33 1.94,1.46 1.1,1.78 A 0.43,0.43 0 0 0 0.78,2.11 C 0.75,2.27 0.82,2.42 0.98,2.52 1.12,2.6 1.31,2.62 1.47,2.55 2.98,1.99 3.81,2.1 4.47,2.43 5.09,2.75 5.6,3.36 6.18,3.99 L 5.82,4.28 C 5.59,4.48 5.5,4.8 5.67,5.05 l 0.4,0.6 A 10.01,10.01 0 0 0 3.2,12.65 10.01,10.01 0 0 0 13.21,22.67 10.01,10.01 0 0 0 23.22,12.66 10.01,10.01 0 0 0 13.22,2.65 10.01,10.01 0 0 0 8.4,3.88 L 8.07,3.4 C 7.9,3.15 7.57,3.11 7.31,3.25 L 6.93,3.48 C 6.37,2.88 5.82,2.16 4.93,1.7 A 3.54,3.54 0 0 0 3.3,1.34 Z m 11.26,3.38 a 2.72,2.27 21.47 0 1 1.24,0.22 2.72,2.27 21.47 0 1 1.7,3.1 2.72,2.27 21.47 0 1 -3.36,1.13 2.72,2.27 21.47 0 1 -1.7,-3.11 2.72,2.27 21.47 0 1 2.12,-1.34 z"
     id="path9"
     inkscape:connector-curvature="0"
     style="fill:#e6e6e6;fill-rule:evenodd" />
</svg>
